X: 18333
T: Humours Of Westport, The
R: reel
M: 4/4
K: Fmajor
F2 cF dFcF|(3FFF cF BdcA|F2 cF dFcA|BAGA (3BAG cA|
F2 cF dFcF|(3FFF cF BdcB|Acfa gecA|1 BAGA (3BAG cA:|2 BAGA (3BAG (3cde||
~f3e fcAc|fAcf (3def ge|effe fcAc|BAGA (3BAG ce|
~f3e fcAc|fAcf (3def ge|agfe fcAc|BAGA (3BAG ce||
effe fgef|(3fff ef efge|effe fcAc|BAGA (3BAG cA|
Ff (3fff FfAf|(3FFF Af [Bf]3 ^g|agfe fcAc|BAGA (3BAG cA||

